X:29
T:Humours of Ennistymon, The
N:Skeletal setting by Alan Ng without ornaments
Z: id:ng-jigs-29 transcribed by Alan Ng agng@facstaff.wisc.edu 4 Feb. 2002
R:jig
M:6/8
K:GMaj
E:10
G|:BcB GBd|cBc A2G|BcB GBd|cAG FGA|BcB GBd|cBc ABc|ded cAF|\
AGF G2z::fgf fed|cAG FGA|dgg gfg|afd d2e|fgf fed|cAG FGA|BcB cAF|\
AGF G2z::gdB gdB|ecA ecA|BcB GBd|1 cAG FGA| gdB gdB|ecA ecA|\
BcB GBd|cAF G2z:|2 cAG FED|BcB GBd|cBc ABc|ded cAF|AGF G2|]**
